X: 1
T: Hambo p\aa Logen
T: Hambo in the Barn
C: Karl Salomonsson
R: hambo, polska
S: http://www.nyckelharpa.org/archive/written-music/american-allspel-list/	2022/9/24
Z: 2022 John Chambers <jc:trillian.mit.edu>
M: 3/4
L: 1/8
Q: 1/4=130
K: G
"^A"|:\
"G"D2 (D>E) D>C | B,2 D>G B2 | G2 (G>A) G>E | "D7"G2 F4 ||\
"D7"D2 (D>F) E>F | D2 F>A d2 | d2 (d>e) d>c | "G"c2 B4 ||
"G"D2 (D>E) D>C | B,2 D>G B2 | G2 (G>A) G>E | "D7"G2 F4 ||\
"D7"c2 (c>B) A>c | "G"B2 (B>A) G>B | "D7"A2 (A>F) D>F | "G"G2 G4 :|
"^B"|:\
"G"(G>c) d2 d>B | (G>A) B4 | (G>A) B2 A>G | "D7"G2 F4 ||\
"D7"(A>B) c2 c>B | (A>G) F4 | (F>G) F2 E>F | "G"E2 D3 C- ||
"G"(B,>C) D2 D>C | (B,D) G4 | "D7"(F>G) A2 A>F | "G"G2 A2 B>B ||\
"C"(c>d) e2 c>c | "G"(B>c) d2 B>B | "D7"(A>B) (c>A) F>A | "G"G2 G4 :|

W: Sung on the B-part only, usually the next-to-last time through:
W: 
W: St\"am fiolen, du spelman bra, och s\"att fart upp p\aa str\aaken,
W: F\"or h\"ar \"ar v\"annen, och h\"ar \"ar jag, och vi ska dansa som H\aaken.
W: Det spritter gl\"adje fr\aan topp till t\aa, och det v\"armer i blogen,
W: F\"or ingenting g\aar v\"all upp \"and\aa, emot en hambo p\aa logen!
